X: 17939
T: How Auld Are Ye, My Bonnie Lass
R: polka
M: 2/4
K: Amixolydian
cA A>B|GA Ad|cA A/B/c/d/|e2 fe/d/|
cA A>B|GA Ad|B>A G/A/B/c/|d2 fe/d/:|
ce ef/g/|ae fe/d/|ce ef/g/|a2 ae/d/|
ce ef/g/|a/g/f/e/ g>d|B>A G/A/B/c/|d2 fe/d/:|

